tools/download-figma-icons/icons/outlined-medium/gateway.svg

<svg width="24" height="24" viewBox="0 0 24 24" fill="none" xmlns="http://www.w3.org/2000/svg">
<path fill-rule="evenodd" clip-rule="evenodd" d="M6.75 12C6.9465 12 7.1415 11.9228 7.28925 11.7713C7.57725 11.4735 7.569 10.9988 7.27125 10.7108C5.96775 9.4515 5.25 7.7775 5.25 6C5.25 4.2225 5.96775 2.5485 7.27125 1.28925C7.569 1.00125 7.57725 0.526504 7.28925 0.228754C7.002 -0.0697457 6.52725 -0.0764957 6.22875 0.210754C4.6305 1.75575 3.75 3.8115 3.75 6C3.75 8.1885 4.6305 10.2443 6.22875 11.7893C6.37425 11.9295 6.5625 12 6.75 12ZM8.48879 9.92358C8.63279 10.0586 8.81654 10.1253 9.00029 10.1253C9.20054 10.1253 9.40079 10.0451 9.54854 9.88608C9.83129 9.58308 9.81479 9.10833 9.51104 8.82633C8.69729 8.06808 8.25029 7.06383 8.25029 6.00033C8.25029 4.93608 8.69729 3.93183 9.51104 3.17358C9.81479 2.89158 9.83129 2.41683 9.54854 2.11383C9.26579 1.80933 8.79104 1.79433 8.48879 2.07633C7.36754 3.12183 6.75029 4.51458 6.75029 6.00033C6.75029 7.48533 7.36754 8.87808 8.48879 9.92358ZM20.25 20.2498V21.0051L22.5 20.9998V16.4998H1.5V20.9998L14.25 21.0193V20.2498C14.25 19.8351 14.5852 19.4998 15 19.4998C15.4148 19.4998 15.75 19.8351 15.75 20.2498V21.0156L16.5 21.0141V20.2498C16.5 19.8351 16.8353 19.4998 17.25 19.4998C17.6647 19.4998 18 19.8351 18 20.2498V21.0103L18.75 21.0088V20.2498C18.75 19.8351 19.0853 19.4998 19.5 19.4998C19.9147 19.4998 20.25 19.8351 20.25 20.2498ZM12.75 5.99981C12.75 5.58581 12.414 5.24981 12 5.24981C11.586 5.24981 11.25 5.58581 11.25 5.99981C11.25 6.40856 11.5785 6.73931 11.985 6.74681C11.9876 6.74681 11.9901 6.74606 11.9925 6.74531C11.9949 6.74456 11.9974 6.74381 12 6.74381C12.0026 6.74381 12.0051 6.74456 12.0075 6.74531C12.0099 6.74606 12.0124 6.74681 12.015 6.74681C12.4215 6.73931 12.75 6.40856 12.75 5.99981ZM12.75 14.9998H22.5487C23.349 14.9998 24 15.6508 24 16.4511V21.0486C24 21.8488 23.349 22.4998 22.5487 22.4998H21.75V23.2498C21.75 23.6646 21.4147 23.9998 21 23.9998C20.5853 23.9998 20.25 23.6646 20.25 23.2498V22.4998H3.75V23.2498C3.75 23.6646 3.41475 23.9998 3 23.9998C2.58525 23.9998 2.25 23.6646 2.25 23.2498V22.4998H1.45125C0.651 22.4998 0 21.8488 0 21.0486V16.4511C0 15.6508 0.651 14.9998 1.45125 14.9998H11.25V8.11181C10.3792 7.80131 9.75 6.97631 9.75 5.99981C9.75 4.75931 10.7595 3.74981 12 3.74981C13.2405 3.74981 14.25 4.75931 14.25 5.99981C14.25 6.97631 13.6208 7.80131 12.75 8.11181V14.9998ZM3 18.75C3 17.922 3.672 17.25 4.5 17.25C5.328 17.25 6 17.922 6 18.75C6 19.578 5.328 20.25 4.5 20.25C3.672 20.25 3 19.578 3 18.75ZM14.9997 10.1247C14.7995 10.1247 14.5992 10.0452 14.4515 9.88624C14.1687 9.58323 14.186 9.10848 14.489 8.82648C15.3027 8.06823 15.7497 7.06398 15.7497 5.99973C15.7497 4.93548 15.3027 3.93199 14.489 3.17374C14.186 2.89174 14.1687 2.41699 14.4515 2.11399C14.735 1.81024 15.2097 1.79449 15.5112 2.07649C16.6325 3.12124 17.2497 4.51474 17.2497 5.99973C17.2497 7.48548 16.6325 8.87823 15.5112 9.92373C15.3672 10.058 15.1835 10.1247 14.9997 10.1247ZM16.7287 10.7107C18.0322 9.4515 18.75 7.7775 18.75 6C18.75 4.2225 18.0322 2.5485 16.7287 1.28925C16.431 1.00125 16.4227 0.526496 16.7107 0.228746C16.9995 -0.0682542 17.4735 -0.0765042 17.7712 0.210746C19.3695 1.75575 20.25 3.8115 20.25 6C20.25 8.1885 19.3695 10.2442 17.7712 11.7892C17.6257 11.9295 17.4375 12 17.25 12C17.0535 12 16.8585 11.9235 16.7107 11.7712C16.4227 11.4735 16.431 10.9987 16.7287 10.7107Z" fill="black"/>
</svg>

<svg width="24" height="24" viewBox="0 0 24 24" fill="none" xmlns="http://www.w3.org/2000/svg"><path fill-rule="evenodd" clip-rule="evenodd" d="M6.75 12a.751.751 0 0 0 .521-1.29C5.968 9.452 5.25 7.778 5.25 6c0-1.777.718-3.451 2.021-4.71A.75.75 0 1 0 6.23.21C4.63 1.757 3.75 3.813 3.75 6s.88 4.244 2.479 5.79a.75.75 0 0 0 .521.21Zm1.739-2.076a.745.745 0 0 0 1.06-.038.749.749 0 0 0-.038-1.06C8.697 8.068 8.251 7.064 8.251 6s.446-2.068 1.26-2.826a.749.749 0 1 0-1.022-1.098C7.368 3.122 6.75 4.515 6.75 6c0 1.485.618 2.878 1.739 3.924ZM20.25 20.25v.755L22.5 21v-4.5h-21V21l12.75.02v-.77a.75.75 0 1 1 1.5 0v.766l.75-.002v-.764a.75.75 0 1 1 1.5 0v.76l.75-.001v-.76a.75.75 0 1 1 1.5 0ZM12.75 6a.75.75 0 0 0-1.5 0 .748.748 0 0 0 .742.745.025.025 0 0 1 .008-.001l.008.001.007.002A.748.748 0 0 0 12.75 6Zm0 9h9.799c.8 0 1.451.65 1.451 1.451v4.598c0 .8-.651 1.45-1.451 1.45h-.799v.75a.75.75 0 1 1-1.5 0v-.75H3.75v.75a.75.75 0 1 1-1.5 0v-.75h-.799A1.45 1.45 0 0 1 0 21.05v-4.6C0 15.651.651 15 1.451 15h9.799V8.112A2.247 2.247 0 0 1 9.75 6c0-1.24 1.01-2.25 2.25-2.25S14.25 4.76 14.25 6c0 .976-.63 1.801-1.5 2.112V15ZM3 18.75a1.5 1.5 0 1 1 3.001.001A1.5 1.5 0 0 1 3 18.75Zm12-8.625a.75.75 0 0 1-.51-1.298c.813-.759 1.26-1.763 1.26-2.827 0-1.065-.447-2.068-1.261-2.826a.75.75 0 1 1 1.022-1.098C16.633 3.121 17.25 4.515 17.25 6c0 1.485-.617 2.878-1.739 3.924a.748.748 0 0 1-.511.2Zm1.729.586C18.032 9.45 18.75 7.777 18.75 6c0-1.777-.718-3.451-2.021-4.71A.75.75 0 0 1 17.77.21c1.6 1.547 2.48 3.603 2.48 5.79s-.88 4.244-2.479 5.79a.75.75 0 1 1-1.042-1.08Z" fill="currentColor"/></svg>
